X: 4429
M: 3/4
L: 1/4
K: F
|:\
[1 B2A | D3- | Dzz |\
[2 _edc | c3 | B3 |\
d^cd | (e2f) | f3 | cFB |\
c>cc- | cde | f>ff- | fga |
bzc- | c(=B/c/B/c/) | azc- | ccc |\
d>dd | e>ee | f>ff | g/g/g^g |\
a>fc/A/ | d/d/dc | Fzc | fzz :|


